packages/dnb-ui-lib/assets/icons/digipost_medium.svg

<svg width="24" height="24" viewBox="0 0 24 24" fill="none" xmlns="http://www.w3.org/2000/svg">
<path fill-rule="evenodd" clip-rule="evenodd" d="M5.25 2C5.25 1.86193 5.36193 1.75 5.5 1.75H15.5362C15.6097 1.75 15.6795 1.78238 15.727 1.83851L20.6908 7.70482C20.729 7.74996 20.75 7.80718 20.75 7.86631V22C20.75 22.1381 20.6381 22.25 20.5 22.25H5.5C5.36193 22.25 5.25 22.1381 5.25 22V19.5C5.25 19.0858 4.91421 18.75 4.5 18.75C4.08579 18.75 3.75 19.0858 3.75 19.5V22C3.75 22.9665 4.5335 23.75 5.5 23.75H20.5C21.4665 23.75 22.25 22.9665 22.25 22V7.86631C22.25 7.4524 22.1033 7.05188 21.8359 6.73591L16.8721 0.869601C16.5396 0.476638 16.051 0.25 15.5362 0.25H5.5C4.5335 0.25 3.75 1.0335 3.75 2V4.5C3.75 4.91421 4.08579 5.25 4.5 5.25C4.91421 5.25 5.25 4.91421 5.25 4.5V2ZM8.78398 17V5.79999H6.92798V10.072C6.62931 9.67732 6.25598 9.37865 5.80798 9.17599C5.37065 8.96266 4.88531 8.85599 4.35198 8.85599C3.64798 8.85599 3.00798 9.03732 2.43198 9.39999C1.86665 9.75199 1.41865 10.248 1.08798 10.888C0.757313 11.5173 0.59198 12.2213 0.59198 13C0.59198 13.7787 0.757313 14.488 1.08798 15.128C1.41865 15.7573 1.86665 16.2533 2.43198 16.616C3.00798 16.968 3.64798 17.144 4.35198 17.144C4.95998 17.144 5.49865 17.016 5.96798 16.76C6.44798 16.4933 6.83731 16.1093 7.13598 15.608V17H8.78398ZM6.27198 14.904C5.84531 15.3947 5.29598 15.64 4.62398 15.64C3.98398 15.64 3.46131 15.3947 3.05598 14.904C2.66131 14.4027 2.46398 13.768 2.46398 13C2.46398 12.232 2.66665 11.6027 3.07198 11.112C3.47731 10.6107 3.99465 10.36 4.62398 10.36C5.29598 10.36 5.84531 10.6107 6.27198 11.112C6.70931 11.6027 6.92798 12.232 6.92798 13C6.92798 13.768 6.70931 14.4027 6.27198 14.904Z" fill="black"/>
</svg>

<svg width="24" height="24" viewBox="0 0 24 24" fill="none" xmlns="http://www.w3.org/2000/svg"><path fill-rule="evenodd" clip-rule="evenodd" d="M5.25 2a.25.25 0 01.25-.25h10.036a.25.25 0 01.191.089l4.964 5.866a.25.25 0 01.059.161V22a.25.25 0 01-.25.25h-15a.25.25 0 01-.25-.25v-2.5a.75.75 0 00-1.5 0V22c0 .966.784 1.75 1.75 1.75h15A1.75 1.75 0 0022.25 22V7.866a1.75 1.75 0 00-.414-1.13L16.872.87a1.75 1.75 0 00-1.336-.62H5.5A1.75 1.75 0 003.75 2v2.5a.75.75 0 001.5 0V2zm3.534 15V5.8H6.928v4.272a2.865 2.865 0 00-1.12-.896 3.276 3.276 0 00-1.456-.32 3.53 3.53 0 00-1.92.544c-.565.352-1.013.848-1.344 1.488-.33.63-.496 1.333-.496 2.112 0 .779.165 1.488.496 2.128.33.63.779 1.125 1.344 1.488a3.61 3.61 0 001.92.528c.608 0 1.147-.128 1.616-.384.48-.267.87-.65 1.168-1.152V17h1.648zm-2.512-2.096c-.427.49-.976.736-1.648.736a1.94 1.94 0 01-1.568-.736c-.395-.501-.592-1.136-.592-1.904s.203-1.397.608-1.888c.405-.501.923-.752 1.552-.752.672 0 1.221.25 1.648.752.437.49.656 1.12.656 1.888 0 .768-.219 1.403-.656 1.904z" fill="#000"/></svg>
